packages/core/src/svgs/nct.svg

<svg width="24" height="24" viewBox="0 0 24 24" fill="none" xmlns="http://www.w3.org/2000/svg">
<g clip-path="url(#clip0_31_14638)">
<path d="M0 0H24V24H0V0Z" fill="#8500FF"/>
<path d="M6.55071 8.5715H13.8737C14.94 8.5715 15.8571 9.66007 15.8571 10.7144C15.8571 11.7686 14.94 12.8572 13.8737 12.8572H9.82157C9.51771 12.8572 9.24729 12.9858 9.24729 13.2858C9.24729 13.5858 9.51814 13.7144 9.82157 13.7144H13.6783C15.3523 13.7144 16.7143 12.3686 16.7143 10.7144C16.7143 9.06007 15.3523 7.71436 13.6783 7.71436H6.55114C6.24686 7.71436 6 7.84293 6 8.14293C6 8.44293 6.24686 8.5715 6.55071 8.5715Z" fill="white"/>
<path d="M13.4931 5.57129H10.8316C10.5394 5.57129 10.2856 5.71272 10.2856 5.99815C10.2856 6.28357 10.5394 6.42843 10.8316 6.42843H13.4931C15.8656 6.42843 17.9999 8.49157 17.9999 10.8084C17.9999 13.1249 15.8656 14.9999 13.4931 14.9999H6.73278C6.44049 14.9999 6.20264 15.143 6.20264 15.4284C6.20264 15.7139 6.44007 15.857 6.73278 15.857H13.4926C16.4506 15.857 18.8571 13.6957 18.8571 10.8084C18.8571 7.92072 16.4506 5.57129 13.4931 5.57129Z" fill="white"/>
<path d="M10.2859 10.7142C10.2859 10.4288 10.0995 10.2856 9.80678 10.2856H8.6325C8.34021 10.2856 8.14307 10.4288 8.14307 10.7142C8.14307 11.0014 8.35564 11.1428 8.54978 11.1428H9.74721C10.1188 11.1428 10.2859 11.0185 10.2859 10.7142ZM8.90164 17.5714H5.67321C5.38092 17.5714 5.14307 17.7145 5.14307 17.9999C5.14307 18.2854 5.38092 18.4285 5.67321 18.4285H8.90164C9.19392 18.4285 9.42878 18.2854 9.42878 17.9999C9.42878 17.7145 9.19392 17.5714 8.90164 17.5714Z" fill="white"/>
</g>
<defs>
<clipPath id="clip0_31_14638">
<rect width="24" height="24" fill="white"/>
</clipPath>
</defs>
</svg>

<svg xmlns="http://www.w3.org/2000/svg" width="24" height="24" fill="none" viewBox="0 0 24 24"><g clip-path="url(#a)"><path fill="#8500FF" d="M0 0h24v24H0z"/><path fill="#fff" d="M6.55 8.572h7.324c1.066 0 1.983 1.088 1.983 2.142 0 1.055-.917 2.143-1.983 2.143H9.822c-.304 0-.575.129-.575.429s.271.428.575.428h3.856c1.674 0 3.036-1.345 3.036-3 0-1.654-1.362-3-3.036-3H6.551c-.304 0-.551.129-.551.429s.247.428.55.428"/><path fill="#fff" d="M13.493 5.571h-2.661c-.293 0-.546.142-.546.427s.253.43.546.43h2.661c2.373 0 4.507 2.064 4.507 4.38C18 13.125 15.866 15 13.493 15h-6.76c-.293 0-.53.143-.53.428s.237.429.53.429h6.76c2.958 0 5.364-2.161 5.364-5.049 0-2.887-2.406-5.237-5.364-5.237"/><path fill="#fff" d="M10.286 10.714c0-.285-.186-.428-.48-.428H8.634c-.293 0-.49.143-.49.428 0 .287.213.429.407.429h1.197c.372 0 .539-.125.539-.429m-1.384 6.857H5.673c-.292 0-.53.143-.53.429 0 .285.238.428.53.428h3.229c.292 0 .527-.143.527-.428s-.235-.429-.527-.429"/></g><defs><clipPath id="a"><path fill="#fff" d="M0 0h24v24H0z"/></clipPath></defs></svg>
